picto/attention-danger-of-falling-framed.svg

<svg class="color-immutable" width="30" height="30" viewBox="0 0 30 30" fill="none" xmlns="http://www.w3.org/2000/svg"><path d="M29.9999 0H0V29.9999H29.9999V0Z" fill="#2D327D"/><path d="M25.4999 2.99999C26.3249 2.99999 26.9999 3.67499 26.9999 4.49999V25.4999C26.9999 26.3249 26.3249 26.9999 25.4999 26.9999H4.49999C3.67499 26.9999 2.99999 26.3249 2.99999 25.4999V4.49999C2.99999 3.67499 3.67499 2.99999 4.49999 2.99999H25.4999ZM25.4999 2.62499H4.49999C3.46612 2.62499 2.62499 3.46612 2.62499 4.49999V25.4999C2.62499 26.5338 3.46612 27.3749 4.49999 27.3749H25.4999C26.5338 27.3749 27.3749 26.5338 27.3749 25.4999V4.49999C27.3749 3.46612 26.5338 2.62499 25.4999 2.62499Z" fill="white"/><path d="M23.8691 21.5823L15.771 7.55624C15.606 7.28159 15.3376 7.08539 15.0018 7.08441C14.6766 7.08344 14.3938 7.29036 14.2318 7.55759L6.13416 21.5836C5.97891 21.864 5.94306 22.1945 6.11008 22.4858C6.27193 22.768 6.5924 22.9091 6.90493 22.916H23.1005C23.4209 22.91 23.7251 22.7761 23.8937 22.4858C24.0572 22.2045 24.0192 21.8562 23.8691 21.5823Z" fill="white"/><path d="M23.8691 21.5823L15.771 7.55624C15.606 7.28159 15.3376 7.08539 15.0018 7.08441C14.6766 7.08344 14.3938 7.29036 14.2318 7.55759L6.13416 21.5836C5.97891 21.864 5.94306 22.1945 6.11008 22.4858C6.27193 22.768 6.5924 22.9091 6.90493 22.916H23.1005C23.4209 22.91 23.7251 22.7761 23.8937 22.4858C24.0572 22.2045 24.0192 21.8562 23.8691 21.5823ZM8.12218 21.3638L15.0002 9.45103L21.8782 21.3638H8.12218Z" fill="#EB0000"/><path d="M18.0986 16.9587C18.0911 16.9587 18.1058 16.9584 18.0986 16.9587C18.0986 16.9587 16.2138 16.9584 16.2032 16.9584C16.1376 16.9584 16.0811 16.9953 16.0519 17.049L15.3013 17.9421L14.304 17.3616L15.081 17.1686C15.1626 17.1548 15.2249 17.0844 15.2249 16.9988C15.2249 16.9929 15.2254 17.0044 15.2249 16.9988L15.226 15.5009C15.226 15.5082 15.2263 15.4938 15.226 15.5009C15.226 15.3047 15.0689 15.146 14.8728 15.146C14.6792 15.146 14.5194 15.3009 14.515 15.4936V16.5768L13.4822 16.8336L13.4834 16.8372C13.052 16.8987 12.72 17.2684 12.72 17.7165C12.72 17.8281 12.7449 17.9376 12.7667 18.0363C12.7667 18.0363 13.0628 19.3532 13.0832 19.4357C13.1036 19.518 13.1129 19.5435 13.186 19.5975C13.186 19.5975 14.3063 20.3837 14.4086 20.4525C14.511 20.5215 14.5643 20.5512 14.6616 20.5512C14.8575 20.5512 15.0168 20.3921 15.0168 20.1959C15.0168 20.0537 14.9286 19.949 14.8159 19.8702C14.7034 19.7913 13.7402 19.1178 13.7402 19.1178L13.6238 18.5955C13.6278 18.595 14.8047 19.284 14.8047 19.284H16.9589V20.4219C16.9955 20.6304 17.1839 20.7893 17.4032 20.7893C17.6222 20.7893 17.811 20.6305 17.8473 20.4219V18.7601C17.8441 18.5609 17.6779 18.3957 17.478 18.3957H16.0804L16.5417 17.847H18.141C18.3765 17.8359 18.5641 17.643 18.5641 17.4051C18.564 17.1598 18.3437 16.9587 18.0986 16.9587ZM12.188 15.9261C11.7728 15.9261 11.4363 16.2627 11.4363 16.6779C11.4363 17.0932 11.7728 17.4297 12.188 17.4297C12.6029 17.4297 12.9396 17.0932 12.9396 16.6779C12.9397 16.2627 12.603 15.9261 12.188 15.9261Z" fill="black"/></svg>

<svg class="color-immutable" width="30" height="30" viewBox="0 0 30 30" fill="none" xmlns="http://www.w3.org/2000/svg"><path d="M30 0H0v30h30V0Z" fill="#2D327D"/><path d="M25.5 3c.825 0 1.5.675 1.5 1.5v21c0 .825-.675 1.5-1.5 1.5h-21c-.825 0-1.5-.675-1.5-1.5v-21C3 3.675 3.675 3 4.5 3h21Zm0-.375h-21A1.877 1.877 0 0 0 2.625 4.5v21c0 1.034.841 1.875 1.875 1.875h21a1.877 1.877 0 0 0 1.875-1.875v-21A1.877 1.877 0 0 0 25.5 2.625Z" fill="#fff"/><path d="M23.87 21.582 15.77 7.556c-.165-.274-.433-.47-.77-.472-.324 0-.607.206-.77.474L6.135 21.584c-.155.28-.19.61-.024.902.162.282.482.423.795.43H23.1c.32-.006.625-.14.794-.43.163-.282.125-.63-.025-.904Z" fill="#fff"/><path d="M23.87 21.582 15.77 7.556c-.165-.274-.433-.47-.77-.472-.324 0-.607.206-.77.474L6.135 21.584c-.155.28-.19.61-.024.902.162.282.482.423.795.43H23.1c.32-.006.625-.14.794-.43.163-.282.125-.63-.025-.904Zm-15.748-.218L15 9.45l6.878 11.913H8.122Z" fill="#EB0000"/><path d="M18.099 16.959c-.008 0 .007 0 0 0h-1.896a.172.172 0 0 0-.151.09l-.75.893-.998-.58.777-.193a.172.172 0 0 0 .144-.17l.001-1.498c0 .007 0-.007 0 0a.353.353 0 0 0-.353-.355.358.358 0 0 0-.358.348v1.083l-1.033.257.001.003a.889.889 0 0 0-.763.88c0 .111.025.22.047.32 0 0 .296 1.316.316 1.399.02.082.03.108.103.162 0 0 1.12.786 1.223.855.102.069.155.098.253.098.195 0 .355-.159.355-.355 0-.142-.088-.247-.201-.326l-1.076-.752-.116-.522c.004-.001 1.18.688 1.18.688h2.155v1.138a.452.452 0 0 0 .888 0V18.76a.373.373 0 0 0-.369-.364H16.08l.462-.549h1.599a.443.443 0 0 0 .423-.442c0-.245-.22-.446-.465-.446Zm-5.911-1.033a.752.752 0 1 0 0 1.504.752.752 0 0 0 0-1.504Z" fill="#000"/></svg>
